render/icons/qwen.svg

<svg width="40" height="40" viewBox="0 0 40 40" fill="none" xmlns="http://www.w3.org/2000/svg">
<path d="M0 8C0 3.58172 3.58172 0 8 0H32C36.4183 0 40 3.58172 40 8V32C40 36.4183 36.4183 40 32 40H8C3.58172 40 0 36.4183 0 32V8Z" fill="white"/>
<path d="M20.8052 5.78656C21.3292 6.70656 21.8505 7.62923 22.3705 8.55323C22.3915 8.59018 22.422 8.62089 22.4588 8.6422C22.4955 8.66352 22.5373 8.67469 22.5798 8.67456H29.9825C30.2145 8.67456 30.4118 8.82123 30.5772 9.11056L32.5158 12.5372C32.7692 12.9866 32.8358 13.1746 32.5478 13.6532C32.2012 14.2266 31.8638 14.8052 31.5345 15.3866L31.0452 16.2639C30.9038 16.5252 30.7478 16.6372 30.9918 16.9466L34.5278 23.1292C34.7572 23.5306 34.6758 23.7879 34.4705 24.1559C33.8878 25.2026 33.2945 26.2412 32.6905 27.2759C32.4785 27.6386 32.2212 27.7759 31.7838 27.7692C30.7478 27.7479 29.7145 27.7559 28.6812 27.7906C28.659 27.7917 28.6375 27.7984 28.6186 27.8101C28.5998 27.8217 28.5841 27.8379 28.5732 27.8572C27.381 29.9696 26.1787 32.0763 24.9665 34.1772C24.7412 34.5679 24.4598 34.6612 23.9998 34.6626C22.6705 34.6666 21.3305 34.6679 19.9772 34.6652C19.8512 34.6649 19.7275 34.6313 19.6186 34.5678C19.5098 34.5044 19.4196 34.4134 19.3572 34.3039L17.5772 31.2066C17.5668 31.1863 17.5509 31.1694 17.5313 31.1578C17.5117 31.1463 17.4892 31.1405 17.4665 31.1412H10.6425C10.2625 31.1812 9.90517 31.1399 9.56917 31.0186L7.43184 27.3252C7.36863 27.2159 7.33512 27.0919 7.33466 26.9656C7.33419 26.8393 7.36677 26.715 7.42917 26.6052L9.0385 23.7786C9.06143 23.7386 9.07349 23.6933 9.07349 23.6472C9.07349 23.6011 9.06143 23.5559 9.0385 23.5159C8.2002 22.0645 7.36686 20.6103 6.5385 19.1532L5.48517 17.2932C5.27184 16.8799 5.2545 16.6319 5.61184 16.0066C6.23184 14.9226 6.84784 13.8399 7.46117 12.7586C7.63717 12.4466 7.8665 12.3132 8.23984 12.3119C9.3905 12.307 10.5412 12.3066 11.6918 12.3106C11.7209 12.3103 11.7494 12.3025 11.7744 12.2877C11.7995 12.273 11.8202 12.2519 11.8345 12.2266L15.5758 5.69989C15.6325 5.60061 15.7144 5.51801 15.8132 5.46043C15.912 5.40285 16.0242 5.37231 16.1385 5.37189C16.8372 5.37056 17.5425 5.37189 18.2492 5.36389L19.6052 5.33323C20.0598 5.32923 20.5705 5.37589 20.8052 5.78656ZM16.2292 6.3239C16.2151 6.32389 16.2013 6.32758 16.1891 6.3346C16.177 6.34162 16.1669 6.35173 16.1598 6.36389L12.3385 13.0506C12.3202 13.0821 12.2939 13.1082 12.2623 13.1265C12.2308 13.1447 12.195 13.1544 12.1585 13.1546H8.33717C8.2625 13.1546 8.24384 13.1879 8.2825 13.2532L16.0292 26.7946C16.0625 26.8506 16.0465 26.8772 15.9838 26.8786L12.2572 26.8986C12.2027 26.8967 12.1488 26.9103 12.1016 26.9376C12.0545 26.965 12.016 27.005 11.9905 27.0532L10.2305 30.1332C10.1718 30.2372 10.2025 30.2906 10.3212 30.2906L17.9425 30.3012C18.0038 30.3012 18.0492 30.3279 18.0812 30.3826L19.9518 33.6546C20.0132 33.7626 20.0745 33.7639 20.1372 33.6546L26.8118 21.9746L27.8558 20.1319C27.8622 20.1205 27.8715 20.111 27.8827 20.1044C27.894 20.0978 27.9068 20.0944 27.9198 20.0944C27.9329 20.0944 27.9457 20.0978 27.9569 20.1044C27.9682 20.111 27.9775 20.1205 27.9838 20.1319L29.8825 23.5052C29.8968 23.5305 29.9175 23.5514 29.9426 23.566C29.9677 23.5805 29.9962 23.5881 30.0252 23.5879L33.7092 23.5612C33.7186 23.5613 33.7279 23.5589 33.7361 23.5542C33.7443 23.5495 33.7511 23.5427 33.7558 23.5346C33.7604 23.5264 33.7628 23.5172 33.7628 23.5079C33.7628 23.4986 33.7604 23.4894 33.7558 23.4812L29.8892 16.6999C29.8753 16.6772 29.8679 16.6512 29.8679 16.6246C29.8679 16.598 29.8753 16.5719 29.8892 16.5492L30.2798 15.8732L31.7732 13.2372C31.8052 13.1826 31.7892 13.1546 31.7265 13.1546H16.2665C16.1878 13.1546 16.1692 13.1199 16.2092 13.0519L18.1212 9.71189C18.1355 9.68913 18.1431 9.66279 18.1431 9.6359C18.1431 9.609 18.1355 9.58266 18.1212 9.5599L16.2998 6.36523C16.2929 6.35261 16.2826 6.34211 16.2702 6.33484C16.2578 6.32756 16.2436 6.32378 16.2292 6.3239ZM24.6158 17.0172C24.6772 17.0172 24.6932 17.0439 24.6612 17.0972L23.5518 19.0506L20.0678 25.1639C20.0613 25.1758 20.0516 25.1857 20.0399 25.1925C20.0281 25.1993 20.0147 25.2028 20.0012 25.2026C19.9876 25.2025 19.9744 25.1989 19.9627 25.1921C19.951 25.1853 19.9413 25.1756 19.9345 25.1639L15.3305 17.1212C15.3038 17.0759 15.3172 17.0519 15.3678 17.0492L15.6558 17.0332L24.6185 17.0172H24.6158Z" fill="url(#paint0_linear_2130_22647)"/>
<defs>
<linearGradient id="paint0_linear_2130_22647" x1="5.33252" y1="5.33301" x2="35" y2="5.33301" gradientUnits="userSpaceOnUse">
<stop stop-color="#00055F" stop-opacity="0.84"/>
<stop offset="1" stop-color="#6F69F7" stop-opacity="0.84"/>
</linearGradient>
</defs>
</svg>

<svg xmlns="http://www.w3.org/2000/svg" width="40" height="40" fill="none">
  <path fill="#fff" d="M0 8a8 8 0 0 1 8-8h24a8 8 0 0 1 8 8v24a8 8 0 0 1-8 8H8a8 8 0 0 1-8-8V8Z"/>
  <path fill="url(#a)" d="M20.805 5.787c.524.92 1.046 1.842 1.566 2.766a.24.24 0 0 0 .209.122h7.403c.232 0 .429.146.594.436l1.939 3.426c.253.45.32.638.032 1.116a70.833 70.833 0 0 0-1.014 1.734l-.489.877c-.141.261-.297.373-.053.683l3.536 6.182c.23.402.148.659-.057 1.027a175.931 175.931 0 0 1-1.78 3.12c-.213.363-.47.5-.907.493a57.294 57.294 0 0 0-3.103.022.131.131 0 0 0-.108.066 765.063 765.063 0 0 1-3.607 6.32c-.225.39-.506.484-.966.486-1.33.004-2.67.005-4.023.002a.715.715 0 0 1-.62-.361l-1.78-3.097a.12.12 0 0 0-.11-.066h-6.824c-.38.04-.738-.001-1.074-.122l-2.137-3.694a.724.724 0 0 1-.003-.72l1.61-2.826a.264.264 0 0 0 0-.263 735.511 735.511 0 0 1-2.5-4.363l-1.054-1.86c-.213-.413-.23-.661.127-1.286.62-1.084 1.236-2.167 1.85-3.248.175-.312.405-.446.778-.447 1.15-.005 2.301-.005 3.452-.001a.165.165 0 0 0 .143-.084l3.74-6.527a.65.65 0 0 1 .564-.328c.698-.001 1.404 0 2.11-.008l1.356-.03c.455-.005.965.042 1.2.453Zm-4.576.537a.08.08 0 0 0-.07.04l-3.82 6.687a.21.21 0 0 1-.18.104H8.337c-.075 0-.093.033-.054.098l7.746 13.542c.034.056.018.082-.045.084l-3.727.02a.29.29 0 0 0-.266.154l-1.76 3.08c-.06.104-.028.158.09.158l7.621.01a.15.15 0 0 1 .14.082l1.87 3.272c.061.108.122.109.185 0l6.675-11.68 1.044-1.843a.074.074 0 0 1 .064-.038.073.073 0 0 1 .064.038l1.898 3.373a.163.163 0 0 0 .143.083l3.684-.027a.053.053 0 0 0 .054-.053.055.055 0 0 0-.007-.027L29.889 16.7a.144.144 0 0 1 0-.15l.39-.677 1.494-2.636c.032-.054.016-.082-.046-.082h-15.46c-.08 0-.098-.035-.058-.103l1.912-3.34a.143.143 0 0 0 0-.152L16.3 6.365a.08.08 0 0 0-.07-.041Zm8.387 10.693c.061 0 .077.027.045.08l-1.11 1.954-3.483 6.113a.074.074 0 0 1-.067.039.078.078 0 0 1-.067-.04l-4.604-8.042c-.026-.045-.013-.07.038-.072l.288-.016 8.963-.016h-.003Z"/>
  <defs>
    <linearGradient id="a" x1="5.333" x2="35" y1="5.333" y2="5.333" gradientUnits="userSpaceOnUse">
      <stop stop-color="#00055F" stop-opacity=".84"/>
      <stop offset="1" stop-color="#6F69F7" stop-opacity=".84"/>
    </linearGradient>
  </defs>
</svg>
